X: 136
T: Maire Rua
M: 9/8
L: 1/8
R: slip jig
K:Gmaj
E|"G"DGG GAG "D"FGA|"G"BdB GAB"D7" c2A|"G"DGG GAG "D"FGA|"G"BdB "D7"cAF "G"G2 :|
|: B|"G"ded "D7"cAG FED|"G"ded "D7"cAB c2A|"G"ded "D7"cAG FGA|"G"B/c/dB "D7"cAF "G"G2 :|


